scripts/naval_style.cube
# naval_style.cube — CreaTuActivo Video Grade
# Estilo: Naval Ravikant / Dan Koe
# Corrección temperatura 3200K→5000K + black crush + curva S + gamma 0.93
LUT_3D_SIZE 5
0.000000 0.000000 0.000000
0.228707 0.006871 0.006871
0.436076 0.013101 0.013101
0.620699 0.018648 0.018648
0.834465 0.025071 0.025071
0.022667 0.256506 0.022667
0.246370 0.261369 0.028456
0.452925 0.266233 0.034167
0.637114 0.270715 0.039372
0.850523 0.276024 0.045481
0.042738 0.483645 0.042738
0.263548 0.488283 0.048281
0.469353 0.492925 0.053785
0.653132 0.497205 0.058826
0.866201 0.502278 0.064764
0.061266 0.693317 0.061266
0.279902 0.697831 0.066669
0.485028 0.702350 0.072047
0.668427 0.706518 0.076983
0.881178 0.711460 0.082807
0.083162 0.941106 0.083162
0.299619 0.945517 0.088447
0.503968 0.949935 0.093716
0.686923 0.954009 0.098558
0.899298 0.958841 0.104278
0.002990 0.002990 0.267854
0.230712 0.009450 0.272701
0.437986 0.015573 0.277549
0.622559 0.021060 0.282017
0.836285 0.027432 0.287310
0.025045 0.258495 0.285316
0.248365 0.263355 0.290140
0.454830 0.268216 0.294966
0.638971 0.272695 0.299414
0.852340 0.278001 0.304683
0.045010 0.485541 0.302311
0.265532 0.490178 0.307115
0.471253 0.494818 0.311920
0.654986 0.499097 0.316349
0.868015 0.504169 0.321597
0.063478 0.695162 0.318502
0.281877 0.699675 0.323287
0.486924 0.704194 0.328074
0.670278 0.708361 0.332486
0.882990 0.713301 0.337715
0.085325 0.942909 0.338035
0.301584 0.947320 0.342798
0.505858 0.951737 0.347565
0.688769 0.955811 0.351958
0.901107 0.960642 0.357164
0.005549 0.005549 0.497078
0.232605 0.011837 0.501706
0.439790 0.017879 0.506339
0.624316 0.023318 0.510610
0.838003 0.029647 0.515673
0.027275 0.260371 0.513765
0.250247 0.265228 0.518382
0.456629 0.270087 0.523003
0.640724 0.274564 0.527264
0.854056 0.279867 0.532315
0.047147 0.487331 0.530041
0.267405 0.491966 0.534647
0.473047 0.496605 0.539258
0.656735 0.500883 0.543509
0.869729 0.505953 0.548549
0.065562 0.696904 0.545576
0.283741 0.701416 0.550172
0.488713 0.705934 0.554772
0.672025 0.710100 0.559015
0.884701 0.715040 0.564044
0.087363 0.944612 0.564351
0.303439 0.949022 0.568936
0.507642 0.953438 0.573525
0.690513 0.957512 0.577757
0.902815 0.962342 0.582773
0.008098 0.008098 0.725449
0.234558 0.014264 0.729948
0.441652 0.020238 0.734452
0.626130 0.025632 0.738606
0.839777 0.031922 0.743531
0.029564 0.262308 0.741675
0.252189 0.267162 0.746166
0.458486 0.272018 0.750663
0.642534 0.276493 0.754810
0.855827 0.281793 0.759727
0.049346 0.489179 0.757513
0.269338 0.493813 0.761997
0.474899 0.498450 0.766487
0.658542 0.502727 0.770627
0.871498 0.507796 0.775537
0.067708 0.698703 0.772641
0.285666 0.703214 0.777118
0.490560 0.707731 0.781601
0.673828 0.711896 0.785736
0.886468 0.716835 0.790638
0.089465 0.946370 0.790938
0.305354 0.950780 0.795408
0.509484 0.955195 0.799883
0.692313 0.959268 0.804010
0.904579 0.964097 0.808904
0.010196 0.010196 0.913425
0.236201 0.016283 0.917846
0.443219 0.022207 0.922274
0.627656 0.027568 0.926357
0.841270 0.033828 0.931199
0.031480 0.263937 0.929375
0.253823 0.268789 0.933791
0.460048 0.273643 0.938212
0.644057 0.278116 0.942290
0.857318 0.283414 0.947126
0.051192 0.490734 0.944949
0.270964 0.495366 0.949359
0.476457 0.500003 0.953775
0.660063 0.504278 0.957849
0.872986 0.509346 0.962679
0.069511 0.700216 0.959829
0.287285 0.704727 0.964235
0.492115 0.709243 0.968646
0.675346 0.713408 0.972714
0.887955 0.718346 0.977538
0.091230 0.947849 0.977834
0.306964 0.952259 0.982233
0.511034 0.956674 0.986638
0.693827 0.960746 0.990700
0.906064 0.965575 0.995518
