scripts/naval_style.cube
# naval_style.cube — CreaTuActivo Video Grade
# Estilo: Naval Ravikant / Dan Koe
# Corrección temperatura 3200K→5000K + black crush + curva S + gamma 0.93
LUT_3D_SIZE 33
0.000000 0.000000 0.000000
0.000000 0.000000 0.000000
0.031166 0.000936 0.000936
0.067505 0.002028 0.002028
0.102080 0.003067 0.003067
0.135379 0.004067 0.004067
0.167552 0.005034 0.005034
0.198654 0.005968 0.005968
0.228707 0.006871 0.006871
0.257729 0.007743 0.007743
0.285745 0.008585 0.008585
0.312793 0.009398 0.009398
0.338930 0.010183 0.010183
0.364227 0.010943 0.010943
0.388776 0.011680 0.011680
0.412686 0.012399 0.012399
0.436076 0.013101 0.013101
0.459078 0.013793 0.013793
0.481831 0.014476 0.014476
0.504477 0.015157 0.015157
0.527155 0.015838 0.015838
0.550000 0.016524 0.016524
0.573135 0.017219 0.017219
0.596670 0.017926 0.017926
0.620699 0.018648 0.018648
0.645293 0.019387 0.019387
0.670502 0.020145 0.020145
0.696354 0.020921 0.020921
0.722849 0.021717 0.021717
0.749964 0.022532 0.022532
0.777653 0.023364 0.023364
0.805849 0.024211 0.024211
0.834465 0.025071 0.025071
0.000000 0.000000 0.000000
0.000000 0.000000 0.000000
0.031166 0.000936 0.000936
0.067505 0.002028 0.002028
0.102080 0.003067 0.003067
0.135379 0.004067 0.004067
0.167552 0.005034 0.005034
0.198654 0.005968 0.005968
0.228707 0.006871 0.006871
0.257729 0.007743 0.007743
0.285745 0.008585 0.008585
0.312793 0.009398 0.009398
0.338930 0.010183 0.010183
0.364227 0.010943 0.010943
0.388776 0.011680 0.011680
0.412686 0.012399 0.012399
0.436076 0.013101 0.013101
0.459078 0.013793 0.013793
0.481831 0.014476 0.014476
0.504477 0.015157 0.015157
0.527155 0.015838 0.015838
0.550000 0.016524 0.016524
0.573135 0.017219 0.017219
0.596670 0.017926 0.017926
0.620699 0.018648 0.018648
0.645293 0.019387 0.019387
0.670502 0.020145 0.020145
0.696354 0.020921 0.020921
0.722849 0.021717 0.021717
0.749964 0.022532 0.022532
0.777653 0.023364 0.023364
0.805849 0.024211 0.024211
0.834465 0.025071 0.025071
0.003352 0.037930 0.003352
0.003352 0.037930 0.003352
0.033794 0.038589 0.004136
0.069988 0.039441 0.005137
0.104489 0.040285 0.006115
0.137738 0.041118 0.007070
0.169873 0.041936 0.008001
0.200946 0.042737 0.008905
0.230974 0.043519 0.009783
0.259976 0.044281 0.010633
0.287975 0.045022 0.011456
0.315008 0.045741 0.012252
0.341131 0.046440 0.013022
0.366417 0.047120 0.013769
0.390955 0.047782 0.014494
0.414855 0.048429 0.015201
0.438236 0.049064 0.015894
0.461230 0.049691 0.016575
0.483976 0.050312 0.017249
0.506614 0.050933 0.017921
0.529285 0.051555 0.018594
0.552123 0.052184 0.019272
0.575251 0.052822 0.019959
0.598780 0.053473 0.020659
0.622803 0.054138 0.021373
0.647390 0.054821 0.022105
0.672594 0.055522 0.022855
0.698440 0.056242 0.023624
0.724929 0.056982 0.024413
0.752038 0.057740 0.025221
0.779722 0.058516 0.026046
0.807912 0.059307 0.026886
0.836523 0.060111 0.027739
0.006913 0.078230 0.006913
0.006913 0.078230 0.006913
0.036869 0.078854 0.007659
0.072905 0.079662 0.008618
0.107320 0.080463 0.009562
0.140512 0.081254 0.010487
0.172604 0.082031 0.011392
0.203642 0.082793 0.012274
0.233643 0.083538 0.013131
0.262622 0.084264 0.013964
0.290600 0.084969 0.014770
0.317616 0.085655 0.015552
0.343723 0.086322 0.016309
0.368995 0.086971 0.017043
0.393521 0.087603 0.017757
0.417409 0.088222 0.018454
0.440780 0.088829 0.019136
0.463764 0.089429 0.019808
0.486501 0.090023 0.020474
0.509131 0.090617 0.021137
0.531793 0.091214 0.021802
0.554623 0.091816 0.022472
0.577744 0.092428 0.023152
0.601265 0.093052 0.023843
0.625280 0.093690 0.024550
0.649861 0.094345 0.025274
0.675058 0.095018 0.026017
0.700896 0.095710 0.026779
0.727378 0.096421 0.027561
0.754481 0.097150 0.028361
0.782158 0.097896 0.029179
0.810342 0.098657 0.030012
0.838946 0.099432 0.030859
0.010303 0.116598 0.010303
0.010303 0.116598 0.010303
0.039898 0.117203 0.011028
0.075786 0.117987 0.011963
0.110120 0.118765 0.012884
0.143256 0.119533 0.013790
0.175307 0.120289 0.014677
0.206312 0.121029 0.015543
0.236286 0.121753 0.016386
0.265241 0.122458 0.017205
0.293200 0.123145 0.017999
0.320198 0.123812 0.018769
0.346290 0.124460 0.019516
0.371548 0.125092 0.020241
0.396062 0.125707 0.020946
0.419939 0.126309 0.021634
0.443299 0.126900 0.022308
0.466274 0.127484 0.022973
0.489002 0.128063 0.023631
0.511623 0.128641 0.024287
0.534278 0.129222 0.024945
0.557100 0.129809 0.025609
0.580213 0.130405 0.026282
0.603727 0.131013 0.026967
0.627734 0.131635 0.027668
0.652308 0.132274 0.028385
0.677498 0.132930 0.029122
0.703329 0.133605 0.029877
0.729804 0.134298 0.030653
0.756900 0.135009 0.031447
0.784571 0.135737 0.032259
0.812749 0.136480 0.033086
0.841347 0.137236 0.033926
0.013565 0.153506 0.013565
0.013565 0.153506 0.013565
0.042867 0.154099 0.014275
0.078619 0.154867 0.015192
0.112876 0.155629 0.016098
0.145958 0.156382 0.016989
0.177969 0.157122 0.017863
0.208942 0.157848 0.018716
0.238889 0.158557 0.019548
0.267822 0.159249 0.020356
0.295761 0.159922 0.021141
0.322743 0.160576 0.021902
0.348820 0.161212 0.022640
0.374065 0.161831 0.023357
0.398567 0.162435 0.024055
0.422433 0.163025 0.024736
0.445783 0.163605 0.025404
0.468748 0.164178 0.026062
0.491467 0.164746 0.026714
0.514080 0.165314 0.027364
0.536726 0.165884 0.028016
0.559541 0.166460 0.028674
0.582646 0.167045 0.029342
0.606153 0.167641 0.030021
0.630154 0.168252 0.030716
0.654720 0.168879 0.031428
0.679903 0.169524 0.032159
0.705728 0.170186 0.032909
0.732197 0.170867 0.033679
0.759286 0.171565 0.034468
0.786950 0.172280 0.035274
0.815122 0.173010 0.036095
0.843714 0.173752 0.036930
0.016710 0.189098 0.016710
0.016710 0.189098 0.016710
0.045768 0.189681 0.017410
0.081393 0.190438 0.018314
0.115577 0.191188 0.019207
0.148608 0.191929 0.020087
0.180580 0.192658 0.020950
0.211522 0.193373 0.021793
0.241443 0.194072 0.022616
0.270354 0.194753 0.023415
0.298275 0.195416 0.024192
0.325240 0.196060 0.024945
0.351303 0.196687 0.025676
0.376534 0.197297 0.026386
0.401025 0.197891 0.027078
0.424880 0.198473 0.027753
0.448220 0.199045 0.028415
0.471176 0.199609 0.029068
0.493886 0.200169 0.029715
0.516491 0.200728 0.030360
0.539130 0.201290 0.031007
0.561937 0.201857 0.031660
0.585035 0.202434 0.032322
0.608535 0.203022 0.032997
0.632529 0.203624 0.033687
0.657088 0.204242 0.034395
0.682265 0.204878 0.035120
0.708083 0.205531 0.035866
0.734545 0.206202 0.036631
0.761628 0.206891 0.037414
0.789286 0.207595 0.038216
0.817451 0.208315 0.039032
0.846037 0.209047 0.039862
0.019743 0.223423 0.019743
0.019743 0.223423 0.019743
0.048591 0.224000 0.020434
0.084100 0.224747 0.021328
0.118214 0.225488 0.022211
0.151196 0.226220 0.023081
0.183131 0.226940 0.023936
0.214042 0.227646 0.024771
0.243939 0.228336 0.025586
0.272829 0.229009 0.026378
0.300732 0.229664 0.027148
0.327681 0.230300 0.027895
0.353730 0.230919 0.028620
0.378949 0.231522 0.029324
0.403428 0.232109 0.030010
0.427272 0.232684 0.030680
0.450603 0.233249 0.031337
0.473550 0.233806 0.031985
0.496252 0.234360 0.032628
0.518849 0.234913 0.033268
0.541480 0.235468 0.033911
0.564280 0.236029 0.034560
0.587371 0.236599 0.035218
0.610864 0.237180 0.035889
0.634851 0.237775 0.036574
0.659404 0.238386 0.037277
0.684573 0.239014 0.037999
0.710385 0.239660 0.038740
0.736841 0.240323 0.039500
0.763918 0.241004 0.040279
0.791570 0.241701 0.041076
0.819729 0.242412 0.041889
0.848309 0.243136 0.042714
0.022667 0.256506 0.022667
0.022667 0.256506 0.022667
0.051332 0.257077 0.023351
0.086732 0.257816 0.024235
0.120781 0.258550 0.025111
0.153716 0.259274 0.025973
0.185615 0.259987 0.026820
0.216498 0.260686 0.027648
0.246370 0.261369 0.028456
0.275240 0.262035 0.029242
0.303125 0.262683 0.030006
0.330059 0.263314 0.030748
0.356094 0.263926 0.031467
0.381301 0.264523 0.032167
0.405769 0.265105 0.032848
0.429604 0.265674 0.033514
0.452925 0.266233 0.034167
0.475864 0.266785 0.034810
0.498557 0.267333 0.035449
0.521146 0.267880 0.036085
0.543770 0.268430 0.036724
0.566563 0.268985 0.037369
0.589647 0.269549 0.038024
0.613133 0.270125 0.038690
0.637114 0.270715 0.039372
0.661660 0.271320 0.040071
0.686824 0.271941 0.040789
0.712629 0.272581 0.041526
0.739079 0.273238 0.042282
0.766150 0.273912 0.043058
0.793795 0.274602 0.043851
0.821949 0.275307 0.044659
0.850523 0.276024 0.045481
0.025482 0.288373 0.025482
0.025482 0.288373 0.025482
0.053986 0.288939 0.026161
0.089286 0.289672 0.027038
0.123273 0.290399 0.027906
0.156164 0.291117 0.028762
0.188028 0.291823 0.029602
0.218883 0.292516 0.030425
0.248733 0.293193 0.031227
0.277583 0.293854 0.032008
0.305452 0.294496 0.032766
0.332371 0.295121 0.033503
0.358393 0.295729 0.034218
0.383588 0.296320 0.034913
0.408045 0.296897 0.035591
0.431870 0.297461 0.036252
0.455182 0.298016 0.036901
0.478113 0.298563 0.037541
0.500798 0.299106 0.038176
0.523380 0.299649 0.038809
0.545997 0.300194 0.039445
0.568783 0.300745 0.040086
0.591860 0.301305 0.040737
0.615340 0.301875 0.041400
0.639314 0.302460 0.042079
0.663854 0.303060 0.042774
0.689012 0.303677 0.043489
0.714811 0.304311 0.044222
0.741255 0.304962 0.044975
0.768320 0.305631 0.045747
0.795960 0.306315 0.046536
0.824107 0.307014 0.047341
0.852676 0.307725 0.048159
0.028195 0.319064 0.028195
0.028195 0.319064 0.028195
0.056555 0.319625 0.028868
0.091761 0.320353 0.029739
0.125689 0.321074 0.030601
0.158538 0.321787 0.031451
0.190369 0.322488 0.032285
0.221198 0.323176 0.033102
0.251026 0.323848 0.033900
0.279857 0.324504 0.034676
0.307709 0.325141 0.035430
0.334614 0.325762 0.036162
0.360623 0.326365 0.036874
0.385807 0.326952 0.037565
0.410254 0.327524 0.038238
0.434070 0.328084 0.038896
0.457374 0.328635 0.039542
0.480296 0.329178 0.040179
0.502974 0.329717 0.040810
0.525548 0.330256 0.041440
0.548158 0.330797 0.042073
0.570937 0.331344 0.042711
0.594009 0.331900 0.043359
0.617482 0.332466 0.044019
0.641450 0.333047 0.044694
0.665984 0.333642 0.045387
0.691135 0.334254 0.046098
0.716929 0.334884 0.046828
0.743367 0.335531 0.047578
0.770426 0.336195 0.048347
0.798061 0.336874 0.049133
0.826203 0.337568 0.049934
0.854766 0.338274 0.050749
0.030808 0.348641 0.030808
0.030808 0.348641 0.030808
0.059039 0.349199 0.031477
0.094158 0.349921 0.032342
0.128031 0.350638 0.033199
0.160839 0.351346 0.034044
0.192640 0.352043 0.034874
0.223443 0.352726 0.035686
0.253250 0.353394 0.036479
0.282063 0.354045 0.037251
0.309899 0.354679 0.038001
0.336791 0.355295 0.038730
0.362788 0.355894 0.039437
0.387960 0.356477 0.040125
0.412398 0.357046 0.040795
0.436204 0.357603 0.041450
0.459500 0.358149 0.042093
0.482414 0.358689 0.042726
0.505085 0.359225 0.043355
0.527652 0.359760 0.043982
0.550256 0.360298 0.044612
0.573028 0.360841 0.045247
0.596093 0.361393 0.045892
0.619561 0.361956 0.046550
0.643522 0.362533 0.047222
0.668051 0.363125 0.047912
0.693197 0.363733 0.048620
0.718985 0.364359 0.049348
0.745417 0.365001 0.050094
0.772470 0.365661 0.050860
0.800100 0.366336 0.051643
0.828237 0.367026 0.052442
0.856795 0.367727 0.053254
0.033331 0.377191 0.033331
0.033331 0.377191 0.033331
0.061445 0.377745 0.033996
0.096483 0.378464 0.034856
0.130302 0.379176 0.035708
0.163073 0.379880 0.036548
0.194843 0.380573 0.037374
0.225622 0.381252 0.038182
0.255408 0.381916 0.038971
0.284204 0.382563 0.039739
0.312026 0.383193 0.040486
0.338904 0.383806 0.041211
0.364889 0.384401 0.041915
0.390051 0.384981 0.042600
0.414479 0.385547 0.043267
0.438277 0.386100 0.043919
0.461564 0.386644 0.044559
0.484471 0.387180 0.045190
0.507134 0.387713 0.045816
0.529695 0.388245 0.046441
0.552292 0.388780 0.047068
0.575059 0.389320 0.047701
0.598118 0.389869 0.048343
0.621579 0.390429 0.048998
0.645535 0.391002 0.049668
0.670058 0.391591 0.050355
0.695198 0.392196 0.051061
0.720981 0.392818 0.051785
0.747407 0.393457 0.052530
0.774456 0.394113 0.053292
0.802080 0.394784 0.054073
0.830211 0.395470 0.054869
0.858765 0.396168 0.055678
0.035773 0.404824 0.035773
0.035773 0.404824 0.035773
0.063780 0.405376 0.036434
0.098741 0.406090 0.037290
0.132511 0.406799 0.038138
0.165244 0.407499 0.038974
0.196986 0.408188 0.039796
0.227742 0.408864 0.040600
0.257508 0.409524 0.041385
0.286288 0.410168 0.042150
0.314094 0.410795 0.042893
0.340959 0.411404 0.043615
0.366933 0.411997 0.044317
0.392085 0.412573 0.044998
0.416504 0.413136 0.045663
0.440293 0.413687 0.046312
0.463573 0.414227 0.046950
0.486472 0.414761 0.047578
0.509129 0.415291 0.048202
0.531683 0.415821 0.048824
0.554274 0.416353 0.049449
0.577034 0.416890 0.050080
0.600088 0.417436 0.050720
0.623543 0.417993 0.051372
0.647494 0.418563 0.052040
0.672012 0.419149 0.052724
0.697146 0.419751 0.053428
0.722923 0.420370 0.054150
0.749345 0.421006 0.054892
0.776388 0.421658 0.055652
0.804007 0.422326 0.056430
0.832133 0.423008 0.057223
0.860682 0.423703 0.058030
0.038145 0.431674 0.038145
0.038145 0.431674 0.038145
0.066054 0.432222 0.038804
0.100942 0.432933 0.039656
0.134664 0.433639 0.040499
0.167363 0.434336 0.041332
0.199077 0.435021 0.042150
0.229810 0.435694 0.042951
0.259558 0.436351 0.043733
0.288321 0.436992 0.044494
0.316113 0.437616 0.045235
0.342966 0.438222 0.045954
0.368929 0.438812 0.046652
0.394071 0.439386 0.047332
0.418481 0.439946 0.047994
0.442262 0.440494 0.048641
0.465534 0.441032 0.049276
0.488426 0.441563 0.049902
0.511076 0.442091 0.050523
0.533624 0.442618 0.051143
0.556209 0.443147 0.051766
0.578963 0.443682 0.052394
0.602011 0.444226 0.053032
0.625461 0.444780 0.053683
0.649406 0.445348 0.054348
0.673919 0.445931 0.055031
0.699048 0.446530 0.055732
0.724820 0.447146 0.056452
0.751236 0.447779 0.057191
0.778274 0.448428 0.057949
0.805888 0.449093 0.058725
0.834010 0.449772 0.059516
0.862554 0.450463 0.060320
0.040462 0.457892 0.040462
0.040462 0.457892 0.040462
0.068280 0.458438 0.041118
0.103099 0.459146 0.041966
0.136775 0.459848 0.042806
0.169439 0.460542 0.043635
0.201127 0.461225 0.044450
0.231838 0.461894 0.045248
0.261567 0.462548 0.046027
0.290314 0.463186 0.046785
0.318093 0.463808 0.047523
0.344934 0.464411 0.048239
0.370886 0.464999 0.048935
0.396019 0.465570 0.049612
0.420419 0.466128 0.050272
0.444192 0.466673 0.050916
0.467457 0.467209 0.051549
0.490342 0.467738 0.052174
0.512986 0.468264 0.052793
0.535528 0.468788 0.053411
0.558106 0.469315 0.054032
0.580855 0.469848 0.054658
0.603897 0.470389 0.055294
0.627342 0.470941 0.055942
0.651282 0.471506 0.056606
0.675789 0.472087 0.057286
0.700913 0.472683 0.057985
0.726680 0.473296 0.058703
0.753091 0.473927 0.059440
0.780125 0.474574 0.060196
0.807734 0.475236 0.060969
0.835851 0.475912 0.061758
0.864390 0.476600 0.062560
0.042738 0.483645 0.042738
0.042738 0.483645 0.042738
0.070469 0.484190 0.043391
0.105222 0.484895 0.044236
0.138854 0.485594 0.045073
0.171486 0.486285 0.045898
0.203147 0.486965 0.046710
0.233837 0.487631 0.047505
0.263548 0.488283 0.048281
0.292280 0.488919 0.049037
0.320045 0.489537 0.049772
0.346874 0.490139 0.050486
0.372816 0.490723 0.051180
0.397939 0.491293 0.051854
0.422331 0.491848 0.052512
0.446096 0.492391 0.053154
0.469353 0.492925 0.053785
0.492232 0.493452 0.054407
0.514869 0.493975 0.055025
0.537405 0.494498 0.055641
0.559978 0.495023 0.056260
0.582721 0.495553 0.056884
0.605758 0.496092 0.057518
0.629197 0.496642 0.058165
0.653132 0.497205 0.058826
0.677634 0.497783 0.059504
0.702753 0.498377 0.060201
0.728515 0.498988 0.060917
0.754921 0.499616 0.061652
0.781950 0.500260 0.062406
0.809554 0.500920 0.063177
0.837666 0.501593 0.063964
0.866201 0.502278 0.064764
0.044988 0.509111 0.044988
0.044988 0.509111 0.044988
0.072638 0.509653 0.045639
0.107328 0.510356 0.046480
0.140917 0.511052 0.047314
0.173516 0.511741 0.048137
0.205151 0.512418 0.048946
0.235820 0.513082 0.049738
0.265514 0.513731 0.050511
0.294230 0.514364 0.051265
0.321983 0.514980 0.051997
0.348800 0.515580 0.052709
0.374731 0.516162 0.053400
0.399845 0.516729 0.054073
0.424228 0.517283 0.054728
0.447986 0.517824 0.055369
0.471236 0.518356 0.055998
0.494108 0.518880 0.056618
0.516739 0.519402 0.057234
0.539268 0.519922 0.057848
0.561836 0.520445 0.058465
0.584573 0.520974 0.059088
0.607604 0.521511 0.059720
0.631039 0.522058 0.060365
0.654968 0.522619 0.061024
0.679465 0.523195 0.061701
0.704579 0.523787 0.062396
0.730336 0.524396 0.063110
0.756738 0.525021 0.063843
0.783761 0.525663 0.064595
0.811361 0.526320 0.065364
0.839469 0.526991 0.066149
0.867998 0.527674 0.066946
0.047229 0.534469 0.047229
0.047229 0.534469 0.047229
0.074801 0.535009 0.047877
0.109429 0.535709 0.048716
0.142975 0.536403 0.049547
0.175543 0.537089 0.050367
0.207153 0.537764 0.051173
0.237801 0.538425 0.051962
0.267477 0.539072 0.052733
0.296179 0.539703 0.053484
0.323918 0.540317 0.054214
0.350724 0.540914 0.054924
0.376645 0.541495 0.055613
0.401749 0.542060 0.056284
0.426124 0.542611 0.056937
0.449874 0.543150 0.057576
0.473116 0.543680 0.058203
0.495982 0.544203 0.058821
0.518606 0.544722 0.059435
0.541130 0.545241 0.060048
0.563692 0.545762 0.060663
0.586424 0.546289 0.061284
0.609450 0.546824 0.061914
0.632879 0.547370 0.062557
0.656803 0.547929 0.063215
0.681295 0.548502 0.063890
0.706404 0.549092 0.064583
0.732156 0.549698 0.065295
0.758553 0.550322 0.066027
0.785571 0.550961 0.066777
0.813166 0.551616 0.067544
0.841270 0.552285 0.068327
0.869795 0.552965 0.069123
0.049476 0.559896 0.049476
0.049476 0.559896 0.049476
0.076973 0.560434 0.050122
0.111540 0.561131 0.050957
0.145045 0.561823 0.051786
0.177581 0.562507 0.052603
0.209166 0.563179 0.053406
0.239794 0.563838 0.054193
0.269452 0.564483 0.054962
0.298139 0.565112 0.055710
0.325865 0.565724 0.056439
0.352659 0.566318 0.057146
0.378569 0.566897 0.057833
0.403664 0.567460 0.058502
0.428031 0.568009 0.059153
0.451773 0.568547 0.059790
0.475009 0.569075 0.060415
0.497867 0.569596 0.061032
0.520486 0.570114 0.061644
0.543003 0.570631 0.062255
0.565559 0.571150 0.062869
0.588286 0.571675 0.063488
0.611306 0.572208 0.064117
0.634730 0.572752 0.064758
0.658649 0.573309 0.065414
0.683136 0.573881 0.066087
0.708240 0.574469 0.066779
0.733987 0.575073 0.067489
0.760379 0.575694 0.068219
0.787393 0.576331 0.068967
0.814983 0.576984 0.069732
0.843082 0.577650 0.070513
0.871602 0.578328 0.071307
0.051744 0.585560 0.051744
0.051744 0.585560 0.051744
0.079168 0.586096 0.052387
0.113676 0.586791 0.053220
0.147139 0.587481 0.054046
0.179644 0.588162 0.054861
0.211204 0.588832 0.055661
0.241810 0.589489 0.056446
0.271451 0.590132 0.057212
0.300123 0.590758 0.057959
0.327836 0.591368 0.058684
0.354618 0.591961 0.059390
0.380518 0.592538 0.060075
0.405604 0.593099 0.060742
0.429962 0.593646 0.061391
0.453696 0.594182 0.062026
0.476924 0.594708 0.062650
0.499776 0.595228 0.063265
0.522388 0.595744 0.063876
0.544900 0.596259 0.064485
0.567450 0.596776 0.065097
0.590171 0.597300 0.065715
0.613186 0.597831 0.066342
0.636604 0.598373 0.066982
0.660518 0.598928 0.067636
0.685000 0.599498 0.068307
0.710099 0.600084 0.068997
0.735841 0.600687 0.069706
0.762228 0.601306 0.070433
0.789237 0.601941 0.071180
0.816823 0.602591 0.071943
0.844917 0.603256 0.072723
0.873433 0.603931 0.073515
0.054046 0.611614 0.054046
0.054046 0.611614 0.054046
0.081399 0.612149 0.054688
0.115848 0.612842 0.055518
0.149270 0.613529 0.056341
0.181743 0.614208 0.057153
0.213278 0.614876 0.057951
0.243863 0.615531 0.058734
0.273486 0.616171 0.059498
0.302143 0.616796 0.060242
0.329842 0.617403 0.060966
0.356613 0.617994 0.061669
0.382502 0.618569 0.062352
0.407579 0.619129 0.063017
0.431928 0.619674 0.063665
0.455654 0.620208 0.064298
0.478875 0.620733 0.064920
0.501720 0.621251 0.065534
0.524326 0.621765 0.066143
0.546831 0.622278 0.066750
0.569375 0.622794 0.067361
0.592091 0.623316 0.067977
0.615100 0.623846 0.068602
0.638513 0.624386 0.069240
0.662422 0.624939 0.069893
0.686898 0.625508 0.070563
0.711992 0.626092 0.071251
0.737729 0.626692 0.071958
0.764111 0.627309 0.072684
0.791116 0.627942 0.073429
0.818696 0.628591 0.074190
0.846785 0.629253 0.074968
0.875297 0.629927 0.075758
0.056395 0.638192 0.056395
0.056395 0.638192 0.056395
0.083678 0.638725 0.057034
0.118067 0.639415 0.057862
0.151448 0.640100 0.058682
0.183889 0.640777 0.059492
0.215398 0.641443 0.060288
0.245963 0.642096 0.061068
0.275568 0.642734 0.061830
0.304209 0.643356 0.062572
0.331894 0.643962 0.063293
0.358653 0.644552 0.063995
0.384532 0.645124 0.064676
0.409599 0.645682 0.065339
0.433939 0.646226 0.065985
0.457657 0.646758 0.066617
0.480871 0.647281 0.067237
0.503709 0.647798 0.067849
0.526308 0.648310 0.068456
0.548807 0.648822 0.069063
0.571345 0.649336 0.069671
0.594055 0.649856 0.070286
0.617059 0.650384 0.070910
0.640466 0.650923 0.071546
0.664370 0.651475 0.072198
0.688841 0.652041 0.072866
0.713929 0.652623 0.073552
0.739661 0.653222 0.074257
0.766038 0.653837 0.074982
0.793037 0.654468 0.075725
0.820613 0.655115 0.076485
0.848697 0.655775 0.077260
0.877204 0.656446 0.078049
0.058799 0.665400 0.058799
0.058799 0.665400 0.058799
0.086013 0.665931 0.059436
0.120343 0.666619 0.060262
0.153682 0.667302 0.061079
0.186091 0.667977 0.061887
0.217574 0.668640 0.062680
0.248117 0.669291 0.063458
0.277704 0.669928 0.064218
0.306329 0.670548 0.064958
0.334001 0.671152 0.065677
0.360748 0.671740 0.066377
0.386616 0.672311 0.067056
0.411672 0.672867 0.067717
0.436004 0.673409 0.068362
0.459714 0.673940 0.068992
0.482920 0.674461 0.069610
0.505751 0.674976 0.070221
0.528343 0.675487 0.070827
0.550836 0.675997 0.071431
0.573368 0.676510 0.072038
0.596072 0.677028 0.072652
0.619070 0.677554 0.073274
0.642472 0.678091 0.073909
0.666370 0.678641 0.074559
0.690835 0.679206 0.075225
0.715918 0.679786 0.075910
0.741645 0.680383 0.076613
0.768017 0.680996 0.077336
0.795011 0.681626 0.078077
0.822581 0.682270 0.078836
0.850661 0.682928 0.079609
0.879163 0.683598 0.080396
0.061266 0.693317 0.061266
0.061266 0.693317 0.061266
0.088412 0.693846 0.061901
0.122683 0.694532 0.062724
0.155979 0.695213 0.063539
0.188355 0.695886 0.064344
0.219813 0.696548 0.065136
0.250334 0.697196 0.065911
0.279902 0.697831 0.066669
0.308511 0.698450 0.067406
0.336169 0.699052 0.068124
0.362903 0.699637 0.068822
0.388759 0.700207 0.069499
0.413806 0.700761 0.070159
0.438129 0.701302 0.070801
0.461830 0.701830 0.071430
0.485028 0.702350 0.072047
0.507852 0.702863 0.072656
0.530437 0.703373 0.073260
0.552924 0.703882 0.073863
0.575449 0.704393 0.074469
0.598147 0.704909 0.075080
0.621139 0.705434 0.075701
0.644535 0.705970 0.076335
0.668427 0.706518 0.076983
0.692888 0.707081 0.077647
0.717965 0.707660 0.078331
0.743687 0.708254 0.079033
0.770053 0.708866 0.079754
0.797042 0.709493 0.080493
0.824607 0.710136 0.081250
0.852681 0.710792 0.082022
0.881178 0.711460 0.082807
0.063800 0.721990 0.063800
0.063800 0.721990 0.063800
0.090878 0.722518 0.064433
0.125089 0.723202 0.065253
0.158343 0.723881 0.066066
0.190686 0.724551 0.066869
0.222117 0.725211 0.067658
0.252615 0.725858 0.068431
0.282165 0.726491 0.069187
0.310757 0.727107 0.069922
0.338401 0.727708 0.070638
0.365122 0.728291 0.071334
0.390967 0.728859 0.072010
0.416004 0.729412 0.072667
0.440317 0.729951 0.073308
0.464009 0.730478 0.073935
0.487200 0.730996 0.074551
0.510016 0.731508 0.075158
0.532594 0.732016 0.075760
0.555074 0.732523 0.076362
0.577593 0.733033 0.076966
0.600284 0.733548 0.077576
0.623271 0.734071 0.078196
0.646661 0.734605 0.078827
0.670547 0.735152 0.079474
0.695001 0.735713 0.080137
0.720074 0.736290 0.080819
0.745789 0.736883 0.081519
0.772150 0.737493 0.082238
0.799133 0.738118 0.082976
0.826693 0.738759 0.083731
0.854762 0.739413 0.084501
0.883254 0.740078 0.085285
0.066402 0.751434 0.066402
0.066402 0.751434 0.066402
0.093412 0.751960 0.067033
0.127565 0.752642 0.067851
0.160775 0.753319 0.068662
0.193085 0.753987 0.069462
0.224488 0.754645 0.070249
0.254964 0.755290 0.071020
0.284494 0.755921 0.071773
0.313069 0.756536 0.072507
0.340698 0.757134 0.073221
0.367406 0.757716 0.073914
0.393240 0.758282 0.074588
0.418266 0.758833 0.075244
0.442569 0.759371 0.075884
0.466253 0.759896 0.076509
0.489435 0.760413 0.077123
0.512244 0.760923 0.077728
0.534815 0.761429 0.078330
0.557288 0.761935 0.078930
0.579800 0.762443 0.079532
0.602485 0.762957 0.080141
0.625465 0.763479 0.080759
0.648849 0.764011 0.081389
