scripts/naval_style.cube
# naval_style.cube — CreaTuActivo Video Grade
# Estilo: Naval Ravikant / Dan Koe
# Corrección temperatura 3200K→5000K + black crush + curva S + gamma 0.93
LUT_3D_SIZE 9
0.000000 0.000000 0.000000
0.102080 0.003067 0.003067
0.228707 0.006871 0.006871
0.338930 0.010183 0.010183
0.436076 0.013101 0.013101
0.527155 0.015838 0.015838
0.620699 0.018648 0.018648
0.722849 0.021717 0.021717
0.834465 0.025071 0.025071
0.010303 0.116598 0.010303
0.110120 0.118765 0.012884
0.236286 0.121753 0.016386
0.346290 0.124460 0.019516
0.443299 0.126900 0.022308
0.534278 0.129222 0.024945
0.627734 0.131635 0.027668
0.729804 0.134298 0.030653
0.841347 0.137236 0.033926
0.022667 0.256506 0.022667
0.120781 0.258550 0.025111
0.246370 0.261369 0.028456
0.356094 0.263926 0.031467
0.452925 0.266233 0.034167
0.543770 0.268430 0.036724
0.637114 0.270715 0.039372
0.739079 0.273238 0.042282
0.850523 0.276024 0.045481
0.033331 0.377191 0.033331
0.130302 0.379176 0.035708
0.255408 0.381916 0.038971
0.364889 0.384401 0.041915
0.461564 0.386644 0.044559
0.552292 0.388780 0.047068
0.645535 0.391002 0.049668
0.747407 0.393457 0.052530
0.858765 0.396168 0.055678
0.042738 0.483645 0.042738
0.138854 0.485594 0.045073
0.263548 0.488283 0.048281
0.372816 0.490723 0.051180
0.469353 0.492925 0.053785
0.559978 0.495023 0.056260
0.653132 0.497205 0.058826
0.754921 0.499616 0.061652
0.866201 0.502278 0.064764
0.051744 0.585560 0.051744
0.147139 0.587481 0.054046
0.271451 0.590132 0.057212
0.380518 0.592538 0.060075
0.476924 0.594708 0.062650
0.567450 0.596776 0.065097
0.660518 0.598928 0.067636
0.762228 0.601306 0.070433
0.873433 0.603931 0.073515
0.061266 0.693317 0.061266
0.155979 0.695213 0.063539
0.279902 0.697831 0.066669
0.388759 0.700207 0.069499
0.485028 0.702350 0.072047
0.575449 0.704393 0.074469
0.668427 0.706518 0.076983
0.770053 0.708866 0.079754
0.881178 0.711460 0.082807
0.071800 0.812523 0.071800
0.165835 0.814397 0.074047
0.289343 0.816983 0.077141
0.397974 0.819331 0.079941
0.494092 0.821450 0.082463
0.584398 0.823468 0.084860
0.677277 0.825569 0.087350
0.778809 0.827889 0.090095
0.889847 0.830453 0.093121
0.083162 0.941106 0.083162
0.176538 0.942959 0.085385
0.299619 0.945517 0.088447
0.408009 0.947840 0.091219
0.503968 0.949935 0.093716
0.594151 0.951932 0.096091
0.686923 0.954009 0.098558
0.788355 0.956305 0.101278
0.899298 0.958841 0.104278
0.001398 0.001398 0.125271
0.103022 0.004277 0.127427
0.229593 0.008018 0.130399
0.339790 0.011298 0.133093
0.436920 0.014197 0.135520
0.527988 0.016918 0.137831
0.621521 0.019716 0.140233
0.723661 0.022773 0.142883
0.835269 0.026116 0.145807
0.011418 0.117530 0.133192
0.111056 0.119696 0.135338
0.237169 0.122682 0.138297
0.347149 0.125388 0.140979
0.444142 0.127826 0.143396
0.535109 0.130147 0.145697
0.628556 0.132559 0.148089
0.730616 0.135220 0.150728
0.842150 0.138156 0.153641
0.023719 0.257385 0.143708
0.121710 0.259428 0.145842
0.247251 0.262246 0.148784
0.356951 0.264803 0.151452
0.453767 0.267109 0.153856
0.544601 0.269305 0.156145
0.637934 0.271589 0.158524
0.739890 0.274112 0.161150
0.851326 0.276897 0.164048
0.034354 0.378044 0.153110
0.131226 0.380029 0.155234
0.256287 0.382768 0.158163
0.365744 0.385254 0.160818
0.462404 0.387495 0.163212
0.553121 0.389631 0.165491
0.646355 0.391853 0.167860
0.748218 0.394307 0.170475
0.859567 0.397018 0.173360
0.043742 0.484483 0.161562
0.139774 0.486431 0.163678
0.264425 0.489120 0.166595
0.373670 0.491560 0.169240
0.470193 0.493761 0.171624
0.560806 0.495859 0.173895
0.653951 0.498041 0.176255
0.755731 0.500451 0.178860
0.867002 0.503113 0.181736
0.052734 0.586385 0.169756
0.148055 0.588306 0.171863
0.272326 0.590957 0.174770
0.381371 0.593362 0.177406
0.477763 0.595533 0.179782
0.568277 0.597601 0.182044
0.661336 0.599752 0.184396
0.763037 0.602130 0.186993
0.874234 0.604755 0.189859
0.062244 0.694132 0.178504
0.156891 0.696028 0.180603
0.280774 0.698646 0.183499
0.389611 0.701021 0.186125
0.485866 0.703164 0.188493
0.576276 0.705207 0.190747
0.669245 0.707332 0.193091
0.770862 0.709680 0.195679
0.881979 0.712273 0.198535
0.072766 0.813328 0.188263
0.166742 0.815202 0.190354
0.290214 0.817789 0.193239
0.398824 0.820136 0.195855
0.494928 0.822254 0.198213
0.585224 0.824273 0.200459
0.678093 0.826373 0.202795
0.779617 0.828694 0.205373
0.890646 0.831257 0.208219
0.084118 0.941902 0.198868
0.177442 0.943755 0.200951
0.300487 0.946314 0.203824
0.408858 0.948636 0.206429
0.504802 0.950731 0.208779
0.594976 0.952728 0.211016
0.687738 0.954805 0.213342
0.789162 0.957100 0.215911
0.900097 0.959636 0.218746
0.002990 0.002990 0.267854
0.104211 0.005770 0.269891
0.230712 0.009450 0.272701
0.340877 0.012697 0.275250
0.437986 0.015573 0.277549
0.529039 0.018277 0.279739
0.622559 0.021060 0.282017
0.724688 0.024103 0.284533
0.836285 0.027432 0.287310
0.012815 0.118707 0.275344
0.112238 0.120871 0.277377
0.238286 0.123855 0.280181
0.348234 0.126559 0.282725
0.445208 0.128996 0.285020
0.536159 0.131315 0.287206
0.629593 0.133725 0.289479
0.731643 0.136385 0.291990
0.843166 0.139319 0.294762
0.025045 0.258495 0.285316
0.122884 0.260537 0.287343
0.248365 0.263355 0.290140
0.358034 0.265911 0.292678
0.454830 0.268216 0.294966
0.545650 0.270411 0.297146
0.638971 0.272695 0.299414
0.740915 0.275217 0.301918
0.852340 0.278001 0.304683
0.035644 0.379123 0.294256
0.132394 0.381107 0.296279
0.257397 0.383846 0.299070
0.366825 0.386330 0.301601
0.463466 0.388572 0.303885
0.554169 0.390707 0.306060
0.647391 0.392929 0.308323
0.749242 0.395382 0.310821
0.860581 0.398092 0.313580
0.045010 0.485541 0.302311
0.140936 0.487489 0.304330
0.265532 0.490178 0.307115
0.374749 0.492617 0.309641
0.471253 0.494818 0.311920
0.561853 0.496915 0.314091
0.654986 0.499097 0.316349
0.756755 0.501507 0.318843
0.868015 0.504169 0.321597
0.053984 0.587429 0.310134
0.149212 0.589349 0.312149
0.273431 0.592000 0.314929
0.382449 0.594405 0.317451
0.478822 0.596575 0.319725
0.569323 0.598643 0.321892
0.662370 0.600794 0.324146
0.764060 0.603171 0.326636
0.875246 0.605796 0.329384
0.063478 0.695162 0.318502
0.158043 0.697058 0.320512
0.281877 0.699675 0.323287
0.390687 0.702051 0.325804
0.486924 0.704194 0.328074
0.577321 0.706236 0.330237
0.670278 0.708361 0.332486
0.771884 0.710708 0.334971
0.882990 0.713301 0.337715
0.073986 0.814346 0.327854
0.167889 0.816220 0.329860
0.291314 0.818806 0.332628
0.399898 0.821153 0.335140
0.495985 0.823272 0.337405
0.586268 0.825290 0.339563
0.679126 0.827390 0.341808
0.780638 0.829710 0.344288
0.891658 0.832273 0.347026
0.085325 0.942909 0.338035
0.178583 0.944762 0.340036
0.301584 0.947320 0.342798
0.409930 0.949642 0.345304
0.505858 0.951737 0.347565
0.596018 0.953734 0.349718
0.688769 0.955811 0.351958
0.790182 0.958106 0.354432
0.901107 0.960642 0.357164
0.004342 0.004342 0.389015
0.105261 0.007066 0.390996
0.231702 0.010703 0.393729
0.341838 0.013924 0.396209
0.438929 0.016782 0.398446
0.529969 0.019472 0.400578
0.623478 0.022243 0.402795
0.725596 0.025274 0.405244
0.837184 0.028592 0.407949
0.014041 0.119747 0.396301
0.113283 0.121910 0.398278
0.239273 0.124892 0.401008
0.349194 0.127595 0.403485
0.446150 0.130030 0.405719
0.537088 0.132347 0.407847
0.630511 0.134756 0.410062
0.732550 0.137415 0.412507
0.844063 0.140347 0.415209
0.026213 0.259476 0.406007
0.123922 0.261518 0.407981
0.249349 0.264334 0.410706
0.358992 0.266890 0.413178
0.455771 0.269194 0.415408
0.546577 0.271389 0.417533
0.639887 0.273672 0.419743
0.741822 0.276193 0.422185
0.853237 0.278977 0.424881
0.036782 0.380076 0.414716
0.133426 0.382060 0.416687
0.258379 0.384798 0.419408
0.367781 0.387282 0.421876
0.464406 0.389523 0.424103
0.555096 0.391659 0.426224
0.648306 0.393880 0.428431
0.750148 0.396333 0.430869
0.861477 0.399042 0.433561
0.046128 0.486477 0.422568
0.141963 0.488425 0.424536
0.266512 0.491113 0.427253
0.375704 0.493552 0.429718
0.472191 0.495753 0.431941
0.562779 0.497850 0.434060
0.655901 0.500031 0.436264
0.757660 0.502441 0.438698
0.868911 0.505102 0.441387
0.055087 0.588351 0.430199
0.150234 0.590271 0.432164
0.274408 0.592922 0.434877
0.383401 0.595327 0.437339
0.479759 0.597496 0.439560
0.570248 0.599564 0.441675
0.663285 0.601715 0.443876
0.764965 0.604092 0.446308
0.876142 0.606716 0.448993
0.064568 0.696073 0.438365
0.159061 0.697969 0.440328
0.282852 0.700586 0.443037
0.391638 0.702961 0.445495
0.487859 0.705104 0.447713
0.578244 0.707146 0.449826
0.671191 0.709270 0.452024
0.772787 0.711618 0.454452
0.883885 0.714210 0.457133
0.075064 0.815246 0.447498
0.168903 0.817120 0.449457
0.292286 0.819706 0.452162
0.400847 0.822053 0.454617
0.496919 0.824171 0.456831
0.587190 0.826189 0.458941
0.680038 0.828289 0.461135
0.781541 0.830609 0.463560
0.892552 0.833172 0.466237
0.086391 0.943799 0.457446
0.179592 0.945652 0.459403
0.302554 0.948210 0.462103
0.410878 0.950532 0.464554
0.506791 0.952627 0.466764
0.596939 0.954623 0.468871
0.689681 0.956700 0.471062
0.791085 0.958995 0.473482
0.902000 0.961531 0.476156
0.005549 0.005549 0.497078
0.106219 0.008234 0.499023
0.232605 0.011837 0.501706
0.342715 0.015036 0.504142
0.439790 0.017879 0.506339
0.530817 0.020558 0.508432
0.624316 0.023318 0.510610
0.726425 0.026339 0.513016
0.838003 0.029647 0.515673
0.015153 0.120696 0.504232
0.114235 0.122857 0.506174
0.240174 0.125838 0.508855
0.350069 0.128539 0.511288
0.447009 0.130972 0.513482
0.537936 0.133289 0.515574
0.631348 0.135697 0.517749
0.733378 0.138353 0.520153
0.844883 0.141284 0.522807
0.027275 0.260371 0.513765
0.124868 0.262412 0.515705
0.250247 0.265228 0.518382
0.359865 0.267783 0.520812
0.456629 0.270087 0.523003
0.547424 0.272281 0.525092
0.640724 0.274564 0.527264
0.742649 0.277084 0.529665
0.854056 0.279867 0.532315
0.037818 0.380946 0.522323
0.134367 0.382929 0.524261
0.259274 0.385667 0.526935
0.368653 0.388151 0.529361
0.465262 0.390392 0.531550
0.555941 0.392526 0.533636
0.649142 0.394747 0.535806
0.750975 0.397200 0.538203
0.862295 0.399909 0.540851
0.047147 0.487331 0.530041
0.142900 0.489278 0.531976
0.267405 0.491966 0.534647
0.376574 0.494405 0.537071
0.473047 0.496605 0.539258
0.563623 0.498702 0.541341
0.656735 0.500883 0.543509
0.758486 0.503292 0.545904
0.869729 0.505953 0.548549
0.056092 0.589193 0.537544
0.151167 0.591113 0.539477
0.275300 0.593763 0.542145
0.384270 0.596167 0.544566
0.480614 0.598337 0.546751
0.571092 0.600404 0.548832
0.664119 0.602555 0.550998
0.765790 0.604932 0.553390
0.876958 0.607556 0.556032
0.065562 0.696904 0.545576
0.159990 0.698800 0.547507
0.283741 0.701416 0.550172
0.392506 0.703791 0.552590
0.488713 0.705934 0.554772
0.579087 0.707976 0.556852
0.672025 0.710100 0.559015
0.773612 0.712447 0.561404
0.884701 0.715040 0.564044
0.076046 0.816067 0.554561
0.169827 0.817941 0.556489
0.293173 0.820527 0.559151
0.401714 0.822874 0.561567
0.497772 0.824992 0.563746
0.588032 0.827010 0.565823
0.680871 0.829109 0.567983
0.782365 0.831429 0.570370
0.893367 0.833992 0.573006
0.087363 0.944612 0.564351
0.180512 0.946464 0.566277
0.303439 0.949022 0.568936
0.411742 0.951344 0.571348
0.507642 0.953438 0.573525
0.597780 0.955435 0.575599
0.690513 0.957512 0.577757
0.791908 0.959807 0.580140
0.902815 0.962342 0.582773
0.006760 0.006760 0.605598
0.107196 0.009412 0.607514
0.233526 0.012986 0.610158
0.343609 0.016165 0.612558
0.440668 0.018995 0.614723
0.531683 0.021662 0.616786
0.625171 0.024411 0.618933
0.727270 0.027423 0.621304
0.838840 0.030722 0.623923
0.016282 0.121663 0.612646
0.115207 0.123824 0.614561
0.241093 0.126803 0.617203
0.350963 0.129502 0.619600
0.447886 0.131934 0.621764
0.538801 0.134250 0.623825
0.632203 0.136656 0.625970
0.734223 0.139311 0.628339
0.845719 0.142241 0.630956
0.028356 0.261285 0.622043
0.125833 0.263325 0.623955
0.251163 0.266141 0.626594
0.360757 0.268695 0.628989
0.457505 0.270998 0.631150
0.548288 0.273192 0.633209
0.641578 0.275474 0.635351
0.743493 0.277994 0.637718
0.854891 0.280776 0.640332
0.038873 0.381834 0.630479
0.135327 0.383817 0.632389
0.260188 0.386554 0.635026
0.369543 0.389038 0.637419
0.466137 0.391278 0.639577
0.556804 0.393412 0.641634
0.649995 0.395632 0.643775
0.751818 0.398085 0.646139
0.863130 0.400793 0.648751
0.048185 0.488203 0.638090
0.143855 0.490150 0.639998
0.268317 0.492837 0.642632
0.377463 0.495276 0.645022
0.473921 0.497476 0.647179
0.564485 0.499572 0.649234
0.657588 0.501753 0.651373
0.759329 0.504162 0.653735
0.870563 0.506823 0.656344
0.057117 0.590052 0.645489
0.152119 0.591972 0.647395
0.276209 0.594621 0.650027
0.385158 0.597026 0.652416
0.481486 0.599195 0.654571
0.571953 0.601262 0.656624
0.664970 0.603413 0.658761
0.766632 0.605789 0.661121
0.877792 0.608413 0.663728
0.066575 0.697752 0.653412
0.160937 0.699648 0.655317
0.284649 0.702264 0.657946
0.393392 0.704639 0.660332
0.489584 0.706782 0.662485
0.579948 0.708823 0.664537
0.672875 0.710948 0.666671
0.774454 0.713294 0.669030
0.885535 0.715887 0.671634
0.077048 0.816906 0.662276
0.170770 0.818779 0.664179
0.294079 0.821365 0.666806
0.402598 0.823712 0.669190
0.498642 0.825829 0.671341
0.588891 0.827847 0.673390
0.681720 0.829947 0.675523
0.783206 0.832266 0.677878
0.894200 0.834829 0.680481
0.088355 0.945441 0.671938
0.181451 0.947293 0.673839
0.304342 0.949851 0.676463
0.412625 0.952172 0.678844
0.508511 0.954267 0.680993
0.598638 0.956263 0.683040
0.691362 0.958340 0.685170
0.792748 0.960635 0.687524
0.903647 0.963170 0.690123
0.008098 0.008098 0.725449
0.108290 0.010720 0.727339
0.234558 0.014264 0.729948
0.344612 0.017423 0.732315
0.441652 0.020238 0.734452
0.532653 0.022893 0.736487
0.626130 0.025632 0.738606
0.728218 0.028634 0.740946
0.839777 0.031922 0.743531
0.017539 0.122747 0.732403
0.116295 0.124906 0.734291
0.242122 0.127883 0.736898
0.351963 0.130580 0.739264
0.448869 0.133011 0.741399
0.539770 0.135325 0.743433
0.633161 0.137730 0.745550
0.735170 0.140384 0.747889
0.846655 0.143312 0.750472
0.029564 0.262308 0.741675
0.126914 0.264348 0.743561
0.252189 0.267162 0.746166
0.361755 0.269715 0.748530
0.458486 0.272018 0.750663
0.549255 0.274211 0.752695
0.642534 0.276493 0.754810
0.744439 0.279012 0.757146
0.855827 0.281793 0.759727
0.040053 0.382828 0.750001
0.136402 0.384811 0.751886
0.261212 0.387548 0.754489
0.370540 0.390031 0.756851
0.467117 0.392270 0.758982
0.557771 0.394404 0.761012
0.650950 0.396624 0.763125
0.752763 0.399076 0.765460
0.864065 0.401784 0.768038
0.049346 0.489179 0.757513
0.144925 0.491126 0.759397
0.269338 0.493813 0.761997
0.378458 0.496251 0.764357
0.474899 0.498450 0.766487
0.565451 0.500546 0.768516
0.658542 0.502727 0.770627
0.760273 0.505136 0.772960
0.871498 0.507796 0.775537
0.058264 0.591015 0.764818
0.153184 0.592934 0.766700
0.277228 0.595583 0.769299
0.386151 0.597987 0.771657
0.482463 0.600156 0.773785
0.572917 0.602223 0.775813
0.665924 0.604374 0.777923
0.767576 0.606749 0.780254
0.878726 0.609373 0.782829
0.067708 0.698703 0.772641
0.161998 0.700598 0.774522
0.285666 0.703214 0.777118
0.394384 0.705589 0.779475
0.490560 0.707731 0.781601
0.580911 0.709772 0.783627
0.673828 0.711896 0.785736
0.775397 0.714243 0.788065
0.886468 0.716835 0.790638
0.078169 0.817845 0.781395
0.171827 0.819718 0.783274
0.295093 0.822304 0.785869
0.403588 0.824650 0.788223
0.499617 0.826768 0.790348
0.589854 0.828785 0.792372
0.682672 0.830885 0.794479
0.784148 0.833204 0.796806
0.895133 0.835766 0.799377
0.089465 0.946370 0.790938
0.182503 0.948222 0.792816
0.305354 0.950780 0.795408
0.413614 0.953101 0.797760
0.509484 0.955195 0.799883
0.599600 0.957191 0.801906
0.692313 0.959268 0.804010
0.793689 0.961563 0.806336
0.904579 0.964097 0.808904
0.009575 0.009575 0.857770
0.109512 0.012168 0.859636
0.235712 0.015683 0.862213
0.345733 0.018823 0.864551
0.442752 0.021622 0.866661
0.533738 0.024265 0.868672
0.627201 0.026993 0.870764
0.729277 0.029983 0.873075
0.840825 0.033261 0.875628
0.018938 0.123958 0.864637
0.117511 0.126116 0.866503
0.243273 0.129090 0.869077
0.353082 0.131786 0.871414
0.449968 0.134215 0.873523
0.540853 0.136527 0.875532
0.634231 0.138931 0.877623
0.736229 0.141583 0.879933
0.847703 0.144509 0.882485
0.030910 0.263452 0.873795
0.128122 0.265491 0.875659
0.253337 0.268305 0.878231
0.362872 0.270857 0.880566
0.459583 0.273159 0.882673
0.550338 0.275352 0.884681
0.643604 0.277632 0.886770
0.745497 0.280151 0.889079
0.856874 0.282931 0.891628
0.041370 0.383940 0.882020
0.137603 0.385923 0.883882
0.262356 0.388659 0.886453
0.371655 0.391141 0.888787
0.468212 0.393380 0.890892
0.558852 0.395514 0.892898
0.652019 0.397733 0.894986
0.753820 0.400185 0.897293
0.865111 0.402892 0.899841
0.050642 0.490270 0.889441
0.146121 0.492217 0.891302
0.270480 0.494903 0.893872
0.379571 0.497341 0.896204
0.475993 0.499541 0.898308
0.566531 0.501636 0.900313
0.659610 0.503816 0.902399
0.761329 0.506225 0.904704
0.872543 0.508885 0.907251
0.059544 0.592091 0.896659
0.154375 0.594010 0.898519
0.278368 0.596659 0.901086
0.387263 0.599063 0.903417
0.483556 0.601232 0.905520
0.573996 0.603298 0.907524
0.666991 0.605448 0.909609
0.768631 0.607824 0.911913
0.879771 0.610447 0.914458
0.068974 0.699766 0.904389
0.163184 0.701661 0.906248
0.286802 0.704277 0.908814
0.395493 0.706651 0.911143
0.491652 0.708793 0.913244
0.581989 0.710834 0.915247
0.674894 0.712958 0.917331
0.776451 0.715304 0.919633
0.887512 0.717896 0.922177
0.079422 0.818895 0.913040
0.173008 0.820768 0.914898
0.296227 0.823354 0.917462
0.404696 0.825700 0.919790
0.500707 0.827817 0.921890
0.590930 0.829835 0.923891
0.683737 0.831934 0.925973
0.785202 0.834253 0.928274
0.896176 0.836815 0.930816
0.090705 0.947408 0.922473
0.183679 0.949261 0.924329
0.306485 0.951818 0.926892
0.414719 0.954139 0.929217
0.510572 0.956233 0.931316
0.600675 0.958229 0.933315
0.693376 0.960306 0.935396
0.794742 0.962600 0.937695
0.905622 0.965135 0.940235
0.010196 0.010196 0.913425
0.110031 0.012779 0.915282
0.236201 0.016283 0.917846
0.346208 0.019414 0.920174
0.443219 0.022207 0.922274
0.534198 0.024845 0.924275
0.627656 0.027568 0.926357
0.729727 0.030554 0.928658
0.841270 0.033828 0.931199
0.019529 0.124472 0.920260
0.118027 0.126628 0.922116
0.243762 0.129602 0.924679
0.353557 0.132297 0.927005
0.450434 0.134726 0.929104
0.541313 0.137037 0.931104
0.634686 0.139440 0.933185
0.736678 0.142091 0.935484
0.848147 0.145017 0.938024
0.031480 0.263937 0.929375
0.128634 0.265976 0.931230
0.253823 0.268789 0.933791
0.363346 0.271341 0.936115
0.460048 0.273643 0.938212
0.550797 0.275835 0.940211
0.644057 0.278116 0.942290
0.745946 0.280634 0.944588
0.857318 0.283414 0.947126
0.041927 0.384412 0.937561
0.138113 0.386394 0.939415
0.262841 0.389130 0.941975
0.372128 0.391612 0.944297
0.468677 0.393851 0.946393
0.559310 0.395984 0.948391
0.652472 0.398204 0.950469
0.754268 0.400655 0.952765
0.865555 0.403362 0.955302
0.051192 0.490734 0.944949
0.146629 0.492680 0.946802
0.270964 0.495366 0.949359
0.380043 0.497804 0.951681
0.476457 0.500003 0.953775
0.566989 0.502098 0.955772
0.660063 0.504278 0.957849
0.761777 0.506687 0.960143
0.872986 0.509346 0.962679
0.060087 0.592547 0.952134
0.154880 0.594466 0.953985
0.278851 0.597115 0.956542
0.387734 0.599519 0.958862
0.484020 0.601688 0.960955
0.574454 0.603754 0.962950
0.667443 0.605904 0.965026
0.769079 0.608279 0.967320
0.880214 0.610903 0.969853
0.069511 0.700216 0.959829
0.163687 0.702111 0.961680
0.287285 0.704727 0.964235
0.395964 0.707101 0.966553
0.492115 0.709243 0.968646
0.582446 0.711284 0.970639
0.675346 0.713408 0.972714
0.776899 0.715754 0.975006
0.887955 0.718346 0.977538
0.079953 0.819341 0.968442
0.173509 0.821214 0.970292
0.296708 0.823799 0.972845
0.405166 0.826145 0.975162
0.501169 0.828262 0.977253
0.591387 0.830280 0.979245
0.684189 0.832379 0.981318
0.785649 0.834698 0.983609
0.896618 0.837260 0.986140
0.091230 0.947849 0.977834
0.184177 0.949701 0.979682
0.306964 0.952259 0.982233
0.415188 0.954580 0.984548
0.511034 0.956674 0.986638
0.601131 0.958669 0.988629
0.693827 0.960746 0.990700
0.795189 0.963040 0.992990
0.906064 0.965575 0.995518
